src/assets/Views.svg

<?xml version="1.0" encoding="UTF-8"?>
<svg width="16px" height="16px" viewBox="0 0 16 16" version="1.1" xmlns="http://www.w3.org/2000/svg" xmlns:xlink="http://www.w3.org/1999/xlink">
    <title>Views</title>
    <defs>
        <path d="M8.00006783,2.56 C10.2290847,2.56 12.1913879,3.52549105 13.872529,5.13863039 C14.4408613,5.6839737 14.9379293,6.26804465 15.3629112,6.85643197 C15.5151518,7.06720918 15.6483646,7.26521879 15.7634778,7.44771057 C15.8353591,7.56166588 15.8565231,7.59714475 15.9266704,7.71735249 C16.0246201,7.89257735 16.0244422,8.10854984 15.9261408,8.28359275 C15.8566334,8.40267024 15.8355471,8.43803614 15.7634778,8.55228943 C15.6483646,8.73478121 15.5151518,8.93279082 15.3629112,9.14356803 C14.9379293,9.73195535 14.4408613,10.3160263 13.872529,10.8613696 C12.1913879,12.474509 10.2290847,13.44 8.00006783,13.44 C5.77105092,13.44 3.80874778,12.474509 2.12760662,10.8613696 C1.55927439,10.3160263 1.06220636,9.73195535 0.637224504,9.14356803 C0.484983817,8.93279082 0.351771093,8.73478121 0.236657886,8.55228943 C0.164588549,8.43803614 0.143502217,8.40267024 0.0729140598,8.28170499 C-0.0244847573,8.10823248 -0.0244847573,7.89179409 0.0739989906,7.71639983 C0.143502217,7.59732976 0.164588549,7.56196386 0.236657886,7.44771057 C0.351771093,7.26521879 0.484983817,7.06720918 0.637224504,6.85643197 C1.06220636,6.26804465 1.55927439,5.6839737 2.12760662,5.13863039 C3.80874778,3.52549105 5.77105092,2.56 8.00006783,2.56 Z M8.00009958,3.69015556 C5.09941478,3.69015556 2.73508066,5.60140931 1.24586645,7.92892194 L1.24586645,7.92892194 L1.24683286,8.07259891 C2.81448857,10.4513453 5.1101503,12.3098771 8.00009958,12.3098771 C10.8997352,12.3098771 13.1783104,10.4623917 14.7533663,8.07260276 L14.7533663,8.07260276 L14.7533663,7.92743374 C13.1821231,5.54324375 10.8949024,3.69015556 8.00009958,3.69015556 Z M8,4.8 C6.23332734,4.8 4.8,6.23208265 4.8,8 C4.8,9.76792829 6.23330711,11.2 8,11.2 C9.76669289,11.2 11.2,9.76792829 11.2,8 C11.2,6.23208265 9.76667266,4.8 8,4.8 Z M8,10.120693 C6.82561347,10.120693 5.87471698,9.17061615 5.87471698,8 C5.87471698,6.82938385 6.82561347,5.87930696 8,5.87930696 C9.17438653,5.87930696 10.125283,6.82938385 10.125283,8 C10.125283,9.17061615 9.17438653,10.120693 8,10.120693 Z M8.7066459,7.92534453 C9.02408432,7.92534453 9.28264588,7.6681045 9.28264588,7.34934455 C9.28264588,7.03058459 9.02408432,6.77334456 8.7066459,6.77334456 C8.38920748,6.77334456 8.13064591,7.03058459 8.13064591,7.34934455 C8.13064591,7.6681045 8.38920748,7.92534453 8.7066459,7.92534453 Z" id="path-1"></path>
    </defs>
    <g id="Locations" stroke="none" stroke-width="1" fill="none" fill-rule="evenodd">
        <g id="Assets" transform="translate(-28.000000, -129.000000)">
            <g id="Group" transform="translate(28.000000, 27.000000)">
                <g transform="translate(0.000000, 102.000000)" id="Views">
                    <mask id="mask-2" fill="white">
                        <use xlink:href="#path-1"></use>
                    </mask>
                    <use id="Mask" fill="#FFFFFF" xlink:href="#path-1"></use>
                    <g id="Group" mask="url(#mask-2)" fill="gray">
                        <g id="🎨-Color">
                            <rect id="Rectangle-2" x="0" y="0" width="16" height="16"></rect>
                        </g>
                    </g>
                </g>
            </g>
        </g>
    </g>
</svg>

<svg xmlns="http://www.w3.org/2000/svg" xmlns:xlink="http://www.w3.org/1999/xlink" viewBox="0 0 16 16">
  <defs/>
  <defs>
    <path id="av" d="M8 2.56c2.23 0 4.191.965 5.873 2.579a12.652 12.652 0 011.89 2.309c.072.114.094.15.164.27a.581.581 0 010 .566 11.41 11.41 0 01-.563.86 12.652 12.652 0 01-1.491 1.717C12.19 12.475 10.229 13.44 8 13.44s-4.191-.965-5.872-2.579A12.652 12.652 0 01.237 8.552a7.031 7.031 0 01-.164-.27.58.58 0 01.001-.566c.07-.119.09-.154.163-.268a12.652 12.652 0 011.89-2.31C3.81 3.526 5.772 2.56 8 2.56zm0 1.13c-2.9 0-5.265 1.911-6.754 4.239v.144C2.815 10.45 5.11 12.31 8 12.31c2.9 0 5.178-1.848 6.753-4.237v-.146C13.183 5.543 10.895 3.69 8 3.69zM8 4.8a3.2 3.2 0 100 6.4 3.2 3.2 0 000-6.4zm0 5.32A2.123 2.123 0 015.875 8c0-1.17.95-2.12 2.125-2.12 1.174 0 2.125.95 2.125 2.12 0 1.17-.95 2.12-2.125 2.12zm.707-2.195a.576.576 0 100-1.152.576.576 0 000 1.152z"/>
  </defs>
  <g fill="none" fill-rule="evenodd">
    <mask id="bv" fill="#fff">
      <use xlink:href="#av"/>
    </mask>
    <use fill="#FFF" xlink:href="#av"/>
    <g fill="gray" mask="url(#bv)">
      <path d="M0 0h16v16H0z"/>
    </g>
  </g>
</svg>
